src/icons/svg/credit-card-alt.svg

<?xml version="1.0"?><svg xmlns="http://www.w3.org/2000/svg" width="40" height="40" viewBox="0 0 40 40"><path  d="m0 30.6v-10.6h40.3v10.6q0 1.2-0.8 2t-2 0.8h-34.7q-1.2 0-2-0.8t-0.8-2z m11.2-3.9v2.3h6.7v-2.3h-6.7z m-6.7 0v2.3h4.5v-2.3h-4.5z m33-20.1q1.2 0 2 0.8t0.8 2v3.9h-40.3v-3.9q0-1.2 0.8-2t2-0.8h34.7z"></path></svg>

<svg xmlns="http://www.w3.org/2000/svg" width="40" height="40" viewBox="0 0 40 40"><path d="M0 30.6V20h40.3v10.6q0 1.2-.8 2t-2 .8H2.8q-1.2 0-2-.8t-.8-2zm11.2-3.9V29h6.7v-2.3h-6.7zm-6.7 0V29H9v-2.3H4.5zm33-20.1q1.2 0 2 .8t.8 2v3.9H0V9.4q0-1.2.8-2t2-.8h34.7z"/></svg>
